X: 698
T: Sherburn Castle
%R: reel
N: Pub: J. Walsh, London, 1748
Z: 2012 John Chambers <jc:trillian.mit.edu>
B: John Walsh "Caledonian Country Dances" 1748
S: 2: CCD2  http://petrucci.mus.auth.gr/imglnks/usimg/5/50/IMSLP98359-PMLP202128-walsh_caledonian_country_dance_vol2.1.pdf p.37 #297
S: 4: ACMV  http://archive.org/details/acompositemusicv01rugg p.4:37 #297
M: 2/4
L: 1/16
K: D
% - - - - - - - - - - - - - - - - - - - - - - - - -
V: 1
|: d2 f4 e2 | d2 a4 g2 | f2 A4 G2 | F4 E4 | D2d2TF2E2 | D2d2TF2E2 | (DEF2) (FGA2) | TB4 A4 :|
|: fede fedc | B2g2 g4 | edcd edcB | A2f2 f4 | G2e2c2A2 | F2dc BAGF | E2g2 A2d2 | d4 D4 :|
% - - - - - - - - - - - - - - - - - - - - - - - - -
V: 2 clef=bass middle=d
|: d4 d4 | d4 d4 | d4 d4 | d4 d4 | d4 d4 | d4 d4 | d4 d4 | d4 d4 :|
|: d4 d4 | d4 d4 | d4 d4 | d4 d4 | d4 d4 | d4 d4 | d4 d4 | d4 d4 :|
% - - - - - - - - - - - - - - - - - - - - - - - - -
%%begintext align
%% The 1st Man turns his Partner with his Right hand and both cast off .|
%% turn again with your Left hands and cast off again :|
%% Lead up to the top, foot it and cast off .|.
%% Hands round all Six :|:
%%endtext

%%sep 1 1 500
%%sep 1 1 500
